src/lib/packages/icons/src/assets/line/chart-bar-circle.svg

<svg xmlns="http://www.w3.org/2000/svg" width="24" height="24" fill="none"><path fill="currentColor" d="M12 22.75C6.072 22.75 1.25 17.928 1.25 12S6.072 1.25 12 1.25 22.75 6.072 22.75 12 17.928 22.75 12 22.75Zm0-20c-5.101 0-9.25 4.149-9.25 9.25s4.149 9.25 9.25 9.25 9.25-4.149 9.25-9.25S17.101 2.75 12 2.75Zm3 15c-1.409 0-2.25-.841-2.25-2.25v-7c0-1.409.841-2.25 2.25-2.25s2.25.841 2.25 2.25v7c0 1.409-.841 2.25-2.25 2.25Zm0-10c-.589 0-.75.161-.75.75v7c0 .589.161.75.75.75s.75-.161.75-.75v-7c0-.589-.161-.75-.75-.75Zm-6 10c-1.409 0-2.25-.841-2.25-2.25v-3c0-1.409.841-2.25 2.25-2.25s2.25.841 2.25 2.25v3c0 1.409-.841 2.25-2.25 2.25Zm0-6c-.589 0-.75.161-.75.75v3c0 .589.161.75.75.75s.75-.161.75-.75v-3c0-.589-.161-.75-.75-.75Z"/></svg>

<svg width="24" height="24" viewBox="0 0 24 24" fill="none" xmlns="http://www.w3.org/2000/svg">
<path d="M12 22.75C6.072 22.75 1.25 17.928 1.25 12C1.25 6.072 6.072 1.25 12 1.25C17.928 1.25 22.75 6.072 22.75 12C22.75 17.928 17.928 22.75 12 22.75ZM12 2.75C6.899 2.75 2.75 6.899 2.75 12C2.75 17.101 6.899 21.25 12 21.25C17.101 21.25 21.25 17.101 21.25 12C21.25 6.899 17.101 2.75 12 2.75ZM15 17.75C13.591 17.75 12.75 16.909 12.75 15.5V8.5C12.75 7.091 13.591 6.25 15 6.25C16.409 6.25 17.25 7.091 17.25 8.5V15.5C17.25 16.909 16.409 17.75 15 17.75ZM15 7.75C14.411 7.75 14.25 7.911 14.25 8.5V15.5C14.25 16.089 14.411 16.25 15 16.25C15.589 16.25 15.75 16.089 15.75 15.5V8.5C15.75 7.911 15.589 7.75 15 7.75ZM9 17.75C7.591 17.75 6.75 16.909 6.75 15.5V12.5C6.75 11.091 7.591 10.25 9 10.25C10.409 10.25 11.25 11.091 11.25 12.5V15.5C11.25 16.909 10.409 17.75 9 17.75ZM9 11.75C8.411 11.75 8.25 11.911 8.25 12.5V15.5C8.25 16.089 8.411 16.25 9 16.25C9.589 16.25 9.75 16.089 9.75 15.5V12.5C9.75 11.911 9.589 11.75 9 11.75Z" fill="currentColor"/>
</svg>
